icon-themes/sifr_svg/cmd/sc_basicshapes.cross.svg

<svg viewBox="0 0 16 16" xmlns="http://www.w3.org/2000/svg"><g fill="#555753"><path d="m5 0v5h-5v6h5v5h6v-5h5v-6h-5v-5zm2 2h2v5h5v2h-5v5h-2v-5h-5v-2h5z"/><path d="m7 2v5h-5v2h5v5h2v-5h5v-2h-5v-5z" opacity=".35"/></g></svg>

<svg xmlns="http://www.w3.org/2000/svg" viewBox="0 0 16 16">
  <path
     style="fill:#555753"
     d="M 5,0 V 5 H 0 v 6 h 5 v 5 h 6 v -5 h 5 V 5 H 11 V 0 Z m 2,2 h 2 v 5 h 5 V 9 H 9 v 5 H 7 V 9 H 2 V 7 h 5 z"
     />
  <path
     style="fill:#555753;opacity:0.35"
     d="M 7,2 V 7 H 2 v 2 h 5 v 5 H 9 V 9 h 5 V 7 H 9 V 2 Z"
     />
</svg>
